X: 3280
M: 6/8
L: 1/8
K: G
[|\
gfg dBG | ABc BAG | gfg ABc | BGG G3 |\
gfg dBG | ABc BAG | gfg ABc | BGG G3 |]|\
gfg dBd | gfg ece | gfg dBG | ABc BAG |
gfg dBd | gfg ece | gfg ABc | BGG G3 |[|\


